X:8
L:1/4
M:2/2
K:G
 d/c/ | B d d c/B/ | c e e d/c/ | B d d c/B/ | c A A d/c/ | B d d c/B/ | c e e d/c/ | 
 B d A/B/c/A/ | B G G :| d/c/ | B d g a | g/f/e/f/ g d | B d g f/g/ | a A A d/c/ | B d g a | 
 g/f/e/f/ g d | B d A/B/c/A/ | B G G :|

